src/assets/rook-white.svg

<svg xmlns="http://www.w3.org/2000/svg" viewBox="0 0 512 512"><g class="" style="" transform="translate(0,0)"><path d="M406 484.7H106v-60h300v60zm-56.67-330.83h-50.05V91.3h-82.39v62.57h-54.22V91.3h-54.23v113.67h295.12V91.3h-54.23v62.57zm23.35 67.23H139.32v187.6h233.36V221.1z" fill="#ffffff" fill-opacity="1" stroke="#000000" stroke-width="6"></path></g></svg>

<?xml version="1.0" encoding="UTF-8" standalone="no"?>
<!DOCTYPE svg PUBLIC "-//W3C//DTD SVG 1.1//EN" "http://www.w3.org/Graphics/SVG/1.1/DTD/svg11.dtd">
<svg width="100%" height="100%" viewBox="0 0 300 394" version="1.1" xmlns="http://www.w3.org/2000/svg" xmlns:xlink="http://www.w3.org/1999/xlink" xml:space="preserve" style="fill-rule:evenodd;clip-rule:evenodd;stroke-linejoin:round;stroke-miterlimit:2;">
    <g transform="matrix(1,0,0,1,-106,-91.3)">
        <path d="M406,484.7L106,484.7L106,424.7L406,424.7L406,484.7ZM349.33,153.87L299.28,153.87L299.28,91.3L216.89,91.3L216.89,153.87L162.67,153.87L162.67,91.3L108.44,91.3L108.44,204.97L403.56,204.97L403.56,91.3L349.33,91.3L349.33,153.87ZM372.68,221.1L139.32,221.1L139.32,408.7L372.68,408.7L372.68,221.1Z" style="fill:white;fill-rule:nonzero;stroke:black;stroke-width:4px;"/>
    </g>
</svg>
